X: 4
T: Paddy Fahey's
R: jig
M: 6/8
L: 1/8
K: Dmaj
|:A|DFA d2e|dcA G3|AFD =c2B|edc B/2=c/2dA|
DFA d2e|d^cA G3|Ad=c AGE|EAD D2:|
|:A|DFA fed|cAG AAB|=c2B edc|B/2c/2dA G3|
Add fed|^cAG EFG|Ad=c AGE|EAD D2:|


Tune 124	Setting 29620

